src/resources/images/icons/file-text1.svg

<svg width="20" height="19" viewBox="0 0 20 19" fill="none" xmlns="http://www.w3.org/2000/svg">
<g id="file-text 1">
<path id="Vector (Stroke)" fill-rule="evenodd" clip-rule="evenodd" d="M3.86442 1.83805C4.27596 1.42651 4.83412 1.19531 5.41612 1.19531H11.5272C11.704 1.19531 11.8736 1.26555 11.9986 1.39057L16.582 5.97391C16.707 6.09893 16.7772 6.2685 16.7772 6.44531V15.612C16.7772 16.194 16.546 16.7521 16.1345 17.1637C15.723 17.5752 15.1648 17.8064 14.5828 17.8064H5.41612C4.83412 17.8064 4.27596 17.5752 3.86442 17.1637C3.45288 16.7521 3.22168 16.194 3.22168 15.612V3.38976C3.22168 2.80775 3.45288 2.24959 3.86442 1.83805ZM5.41612 2.52865C5.18774 2.52865 4.96872 2.61937 4.80723 2.78086C4.64574 2.94235 4.55501 3.16138 4.55501 3.38976V15.612C4.55501 15.8404 4.64574 16.0594 4.80723 16.2209C4.96872 16.3824 5.18774 16.4731 5.41612 16.4731H14.5828C14.8112 16.4731 15.0302 16.3824 15.1917 16.2209C15.3532 16.0594 15.4439 15.8404 15.4439 15.612V6.72145L11.2511 2.52865H5.41612Z" fill="#3C434A"/>
<path id="Vector (Stroke)_2" fill-rule="evenodd" clip-rule="evenodd" d="M11.527 1.19531C11.8952 1.19531 12.1937 1.49379 12.1937 1.86198V5.77865H16.1104C16.4785 5.77865 16.777 6.07712 16.777 6.44531C16.777 6.8135 16.4785 7.11198 16.1104 7.11198H11.527C11.1588 7.11198 10.8604 6.8135 10.8604 6.44531V1.86198C10.8604 1.49379 11.1588 1.19531 11.527 1.19531Z" fill="#3C434A"/>
<path id="Vector (Stroke)_3" fill-rule="evenodd" clip-rule="evenodd" d="M6.27734 10.2682C6.27734 9.90004 6.57582 9.60156 6.94401 9.60156H13.0551C13.4233 9.60156 13.7218 9.90004 13.7218 10.2682C13.7218 10.6364 13.4233 10.9349 13.0551 10.9349H6.94401C6.57582 10.9349 6.27734 10.6364 6.27734 10.2682Z" fill="#3C434A"/>
<path id="Vector (Stroke)_4" fill-rule="evenodd" clip-rule="evenodd" d="M6.27734 13.3229C6.27734 12.9547 6.57582 12.6562 6.94401 12.6562H13.0551C13.4233 12.6562 13.7218 12.9547 13.7218 13.3229C13.7218 13.6911 13.4233 13.9896 13.0551 13.9896H6.94401C6.57582 13.9896 6.27734 13.6911 6.27734 13.3229Z" fill="#3C434A"/>
<path id="Vector (Stroke)_5" fill-rule="evenodd" clip-rule="evenodd" d="M6.27734 7.21354C6.27734 6.84535 6.57582 6.54688 6.94401 6.54688H8.47179C8.83998 6.54688 9.13845 6.84535 9.13845 7.21354C9.13845 7.58173 8.83998 7.88021 8.47179 7.88021H6.94401C6.57582 7.88021 6.27734 7.58173 6.27734 7.21354Z" fill="#3C434A"/>
</g>
</svg>

<svg xmlns="http://www.w3.org/2000/svg" fill="none" viewBox="0 0 20 19"><g fill="#3C434A" fill-rule="evenodd" clip-rule="evenodd"><path d="M3.864 1.838c.412-.411.97-.643 1.552-.643h6.111c.177 0 .347.07.472.196l4.583 4.583a.667.667 0 0 1 .195.471v9.167a2.195 2.195 0 0 1-2.194 2.194H5.416a2.195 2.195 0 0 1-2.194-2.194V3.39c0-.582.23-1.14.642-1.552Zm1.552.69a.861.861 0 0 0-.861.862v12.222a.861.861 0 0 0 .861.861h9.167a.861.861 0 0 0 .86-.861v-8.89l-4.192-4.193H5.416Z"/><path d="M11.527 1.195c.368 0 .667.299.667.667v3.917h3.916a.667.667 0 0 1 0 1.333h-4.583a.667.667 0 0 1-.667-.667V1.862c0-.368.299-.667.667-.667ZM6.277 10.268c0-.368.299-.666.667-.666h6.111a.667.667 0 1 1 0 1.333H6.944a.667.667 0 0 1-.667-.667ZM6.277 13.323c0-.368.299-.667.667-.667h6.111a.667.667 0 0 1 0 1.334H6.944a.667.667 0 0 1-.667-.667ZM6.277 7.214c0-.369.299-.667.667-.667h1.528a.667.667 0 1 1 0 1.333H6.944a.667.667 0 0 1-.667-.666Z"/></g></svg>
